src/icons/IconDocAdd/IconDocAdd_size_m.svg

<svg viewBox="0 0 24 24" xmlns="http://www.w3.org/2000/svg">
  <path
    fill-rule="evenodd"
    clip-rule="evenodd"
    d="M6 2C4.9 2 4.01 2.9 4.01 4L4 20C4 21.1 4.89 22 5.99 22H18C19.1 22 20 21.1 20 20V8.41421C20 8.149 19.8946 7.89464 19.7071 7.70711L14.2929 2.29289C14.1054 2.10536 13.851 2 13.5858 2H6ZM14 9C13.4477 9 13 8.55228 13 8V3.5L18.5 9H14ZM16 18V20H14V18H12V16H14V14H16V16H18V18H16Z"
  />
</svg>

<svg viewBox="0 0 24 24" xmlns="http://www.w3.org/2000/svg">
  <path
    fill-rule="evenodd"
    clip-rule="evenodd"
    d="M6 2c-1.1 0-1.99.9-1.99 2L4 20c0 1.1.89 2 1.99 2H18c1.1 0 2-.9 2-2V8.414a1 1 0 00-.293-.707l-5.414-5.414A1 1 0 0013.586 2H6zm8 7a1 1 0 01-1-1V3.5L18.5 9H14zm2 9v2h-2v-2h-2v-2h2v-2h2v2h2v2h-2z"
  />
</svg>
